src/assets/icons/telegram.svg

<svg fill="none" height="23" viewBox="0 0 28 23" width="28" xmlns="http://www.w3.org/2000/svg"><path d="m7 13.4643 3.0366 8.7198s.3797.8159.7862.8159c.4066 0 6.4532-6.5261 6.4532-6.5261l6.724-13.4739-16.89165 8.2134z" fill="#fff"/><g fill="#1a0233"><path d="m10.6617 15-.6503 7.0411s-.27221 2.1575 1.8449 0c2.1172-2.1575 4.1437-3.8211 4.1437-3.8211"/><path d="m6.88415 13.4064-6.323489-2.0517s-.755727-.3053-.5123828-.9977c.0500939-.1427.1511448-.2642.4534358-.473 1.401116-.97252 25.933486-9.753106 25.933486-9.753106s.6927-.232432 1.1012-.0778354c.1011.0311529.192.0884804.2635.1661154.0715.077636.1211.172794.1435.275742.0442.181831.0626.368905.0549.555814-.002.16169-.0216.31156-.0365.54657-.1494 2.40065-4.6207 20.3175-4.6207 20.3175s-.2676 1.0484-1.226 1.0843c-.2356.0076-.4703-.0322-.6901-.1168-.2198-.0847-.4202-.2126-.5893-.376-1.8809-1.6111-8.3819-5.9618-9.8184-6.9186-.0324-.022-.0597-.0506-.08-.084s-.0333-.0707-.0379-.1095c-.0201-.1008.0901-.2258.0901-.2258s11.3199-10.01969 11.6211-11.07154c.0233-.0815-.0648-.1217-.1831-.08601-.7518.27544-13.78532 8.47165-15.22379 9.37615-.10354.0312-.21298.0379-.31956.0194z"/></g></svg>

<svg width="28" height="23" viewBox="0 0 28 23" fill="none" xmlns="http://www.w3.org/2000/svg">
<path d="M7 13.4643L10.0366 22.1841C10.0366 22.1841 10.4163 23 10.8228 23C11.2294 23 17.276 16.4739 17.276 16.4739L24 3L7.10835 11.2134L7 13.4643Z" fill="white"/>
<path d="M10.6617 15L10.0114 22.0411C10.0114 22.0411 9.73919 24.1986 11.8563 22.0411C13.9735 19.8836 16 18.22 16 18.22" fill="#1A0233"/>
<path d="M6.88415 13.4064L0.560661 11.3547C0.560661 11.3547 -0.195066 11.0494 0.0482782 10.357C0.0983721 10.2143 0.199423 10.0928 0.501714 9.884C1.90283 8.91148 26.4352 0.130894 26.4352 0.130894C26.4352 0.130894 27.1279 -0.101538 27.5364 0.0530586C27.6375 0.0842115 27.7284 0.141539 27.7999 0.219174C27.8714 0.29681 27.921 0.391968 27.9434 0.494916C27.9876 0.676747 28.006 0.863821 27.9983 1.05073C27.9963 1.21242 27.9767 1.36229 27.9618 1.5973C27.8124 3.99795 23.3411 21.9148 23.3411 21.9148C23.3411 21.9148 23.0735 22.9632 22.1151 22.9991C21.8795 23.0067 21.6448 22.9669 21.425 22.8823C21.2052 22.7976 21.0048 22.6697 20.8357 22.5063C18.9548 20.8952 12.4538 16.5445 11.0173 15.5877C10.9849 15.5657 10.9576 15.5371 10.9373 15.5037C10.917 15.4703 10.904 15.433 10.8994 15.3942C10.8793 15.2934 10.9895 15.1684 10.9895 15.1684C10.9895 15.1684 22.3094 5.14871 22.6106 4.09686C22.6339 4.01536 22.5458 3.97516 22.4275 4.01085C21.6757 4.28629 8.64218 12.4825 7.20371 13.387C7.10017 13.4182 6.99073 13.4249 6.88415 13.4064Z" fill="#1A0233"/>
</svg>
